symbols/web/favorite/materialsymbolsrounded/favorite_grad200fill1_20px.svg

<svg xmlns="http://www.w3.org/2000/svg" height="20" width="20"><path d="m8.458 16.812-1.604-1.458q-2.229-2.021-4.042-4.052Q1 9.271 1 6.646q0-2.208 1.51-3.708 1.511-1.5 3.74-1.5 1.25 0 2.208.5.959.5 1.542.958.562-.458 1.521-.958.958-.5 2.208-.5 2.229 0 3.75 1.5T19 6.646q0 2.625-1.854 4.666-1.854 2.042-4.146 4.167l-1.458 1.333q-.646.626-1.532.615-.885-.01-1.552-.615Z"/></svg>

<svg xmlns="http://www.w3.org/2000/svg" height="20" width="20"><path d="M8.458 16.812 6.854 15.354Q4.625 13.333 2.812 11.302Q1 9.271 1 6.646Q1 4.438 2.51 2.938Q4.021 1.438 6.25 1.438Q7.5 1.438 8.458 1.938Q9.417 2.438 10 2.896Q10.562 2.438 11.521 1.938Q12.479 1.438 13.729 1.438Q15.958 1.438 17.479 2.938Q19 4.438 19 6.646Q19 9.271 17.146 11.312Q15.292 13.354 13 15.479L11.542 16.812Q10.896 17.438 10.01 17.427Q9.125 17.417 8.458 16.812Z"/></svg>
